X: 17931
T: Houseboat, The
R: slip jig
M: 9/8
K: Dminor
|:ADE FGA cde|dcB c2 B ABc|ADD BAB cde|fed e/f/ge d2 a|
ge^c d2 =c ABc|e/f/gc e2 d ecA|e/f/gd eAB cde|dcB dDF EDD:|
|:A,DD FDD GEC|Ddd ed^c dAF|DEE EFF GAB|cea ge^c dDE|
Ddd e/f/ge fed|ecG EFG cGE|ADE FGA cde|dcB cAE D3:|

